X:4520
T:Pols efter Bruce
L:1/8
M:3/4
O:Sweden
R:Pols
Z:Carol Turner
%%TUNEURL: http://www.leeds.ac.uk/music/Info/RRTuneBk/gettune/00000ee5.html
%%ID:00000ee5
K:D
e|\
a2 ae c>e | f2 fe d>d | c2 cA B>B | Bc c3 e |\
a2 ae c>e | f2 fe d>d | c2 cA B >B | B^G A3 e ::
c2 cA ^GA | F2 FE E>C | A,C  D2 D>F | FE E3 A |\
c2 cA ^GA | F2 FE  E>C | A,C  D2 D>F | FE E3 A :|
